X:1
T:Lineynaya kadril
L:1/8
Q:1/4=133
M:2/4
I:linebreak $
K:A
V:1 treble 
V:1
"A" A B cd | e2 a>=g |"D" ff af |"A" e2 c2 |"D" dd fe/d/ |"A" cc ed/c/ |"Bm" BB"E7" e/d/c/B/ | %7
"A" A2 A2 |"D" dd fe/d/ |"A" cc ed/c/ |$"Bm" Bd"E7" c/d/B |"A" A2 A2 |] %12
